icons/keypad.svg

<svg xmlns="http://www.w3.org/2000/svg" viewBox="0 0 24 24" fill="currentColor">
  <path d="M5 3.8252c-.69036 0-1.25.55964-1.25 1.25 0 .69035.55964 1.25 1.25 1.25s1.25-.55965 1.25-1.25c0-.69036-.55964-1.25-1.25-1.25Zm-2.75 1.25c0-1.51879 1.23122-2.75 2.75-2.75s2.75 1.23121 2.75 2.75c0 1.51878-1.23122 2.75-2.75 2.75s-2.75-1.23122-2.75-2.75Zm9.75-1.25c-.6904 0-1.25.55964-1.25 1.25 0 .69035.5596 1.25 1.25 1.25s1.25-.55965 1.25-1.25c0-.69036-.5596-1.25-1.25-1.25Zm-2.75 1.25c0-1.51879 1.2312-2.75 2.75-2.75s2.75 1.23121 2.75 2.75c0 1.51878-1.2312 2.75-2.75 2.75s-2.75-1.23122-2.75-2.75Zm8.5 0c0-.69036.5596-1.25 1.25-1.25s1.25.55964 1.25 1.25c0 .69035-.5596 1.25-1.25 1.25s-1.25-.55965-1.25-1.25Zm1.25-2.75c-1.5188 0-2.75 1.23121-2.75 2.75 0 1.51878 1.2312 2.75 2.75 2.75s2.75-1.23122 2.75-2.75c0-1.51879-1.2312-2.75-2.75-2.75Zm-14 8.5c-.69036 0-1.25.5596-1.25 1.25s.55964 1.25 1.25 1.25 1.25-.5596 1.25-1.25-.55964-1.25-1.25-1.25Zm-2.75 1.25c0-1.5188 1.23122-2.75 2.75-2.75s2.75 1.2312 2.75 2.75-1.23122 2.75-2.75 2.75-2.75-1.2312-2.75-2.75Zm8.5 0c0-.6904.5596-1.25 1.25-1.25s1.25.5596 1.25 1.25-.5596 1.25-1.25 1.25-1.25-.5596-1.25-1.25Zm1.25-2.75c-1.5188 0-2.75 1.2312-2.75 2.75s1.2312 2.75 2.75 2.75 2.75-1.2312 2.75-2.75-1.2312-2.75-2.75-2.75Zm7 1.5c-.6904 0-1.25.5596-1.25 1.25s.5596 1.25 1.25 1.25 1.25-.5596 1.25-1.25-.5596-1.25-1.25-1.25Zm-2.75 1.25c0-1.5188 1.2312-2.75 2.75-2.75s2.75 1.2312 2.75 2.75-1.2312 2.75-2.75 2.75-2.75-1.2312-2.75-2.75Zm-6.41968 5.8696c-.2929-.2929-.76777-.2929-1.06066 0-.2929.2929-.2929.7677 0 1.0606l2.29994 2.3c.4929.4929 1.2678.4929 1.7607 0l2.3-2.3c.2929-.2929.2929-.7677 0-1.0606-.2929-.2929-.7678-.2929-1.0607 0L11.95 20.0644l-2.11968-2.1196Z"/>
</svg>

<svg width="24" height="24" viewBox="0 0 24 24" fill="none" xmlns="http://www.w3.org/2000/svg">
<path fill-rule="evenodd" clip-rule="evenodd" d="M5 3.8252C4.30964 3.8252 3.75 4.38484 3.75 5.0752C3.75 5.76555 4.30964 6.3252 5 6.3252C5.69036 6.3252 6.25 5.76555 6.25 5.0752C6.25 4.38484 5.69036 3.8252 5 3.8252ZM2.25 5.0752C2.25 3.55641 3.48122 2.3252 5 2.3252C6.51878 2.3252 7.75 3.55641 7.75 5.0752C7.75 6.59398 6.51878 7.8252 5 7.8252C3.48122 7.8252 2.25 6.59398 2.25 5.0752ZM12 3.8252C11.3096 3.8252 10.75 4.38484 10.75 5.0752C10.75 5.76555 11.3096 6.3252 12 6.3252C12.6904 6.3252 13.25 5.76555 13.25 5.0752C13.25 4.38484 12.6904 3.8252 12 3.8252ZM9.25 5.0752C9.25 3.55641 10.4812 2.3252 12 2.3252C13.5188 2.3252 14.75 3.55641 14.75 5.0752C14.75 6.59398 13.5188 7.8252 12 7.8252C10.4812 7.8252 9.25 6.59398 9.25 5.0752ZM17.75 5.0752C17.75 4.38484 18.3096 3.8252 19 3.8252C19.6904 3.8252 20.25 4.38484 20.25 5.0752C20.25 5.76555 19.6904 6.3252 19 6.3252C18.3096 6.3252 17.75 5.76555 17.75 5.0752ZM19 2.3252C17.4812 2.3252 16.25 3.55641 16.25 5.0752C16.25 6.59398 17.4812 7.8252 19 7.8252C20.5188 7.8252 21.75 6.59398 21.75 5.0752C21.75 3.55641 20.5188 2.3252 19 2.3252ZM5 10.8252C4.30964 10.8252 3.75 11.3848 3.75 12.0752C3.75 12.7656 4.30964 13.3252 5 13.3252C5.69036 13.3252 6.25 12.7656 6.25 12.0752C6.25 11.3848 5.69036 10.8252 5 10.8252ZM2.25 12.0752C2.25 10.5564 3.48122 9.3252 5 9.3252C6.51878 9.3252 7.75 10.5564 7.75 12.0752C7.75 13.594 6.51878 14.8252 5 14.8252C3.48122 14.8252 2.25 13.594 2.25 12.0752ZM10.75 12.0752C10.75 11.3848 11.3096 10.8252 12 10.8252C12.6904 10.8252 13.25 11.3848 13.25 12.0752C13.25 12.7656 12.6904 13.3252 12 13.3252C11.3096 13.3252 10.75 12.7656 10.75 12.0752ZM12 9.3252C10.4812 9.3252 9.25 10.5564 9.25 12.0752C9.25 13.594 10.4812 14.8252 12 14.8252C13.5188 14.8252 14.75 13.594 14.75 12.0752C14.75 10.5564 13.5188 9.3252 12 9.3252ZM19 10.8252C18.3096 10.8252 17.75 11.3848 17.75 12.0752C17.75 12.7656 18.3096 13.3252 19 13.3252C19.6904 13.3252 20.25 12.7656 20.25 12.0752C20.25 11.3848 19.6904 10.8252 19 10.8252ZM16.25 12.0752C16.25 10.5564 17.4812 9.3252 19 9.3252C20.5188 9.3252 21.75 10.5564 21.75 12.0752C21.75 13.594 20.5188 14.8252 19 14.8252C17.4812 14.8252 16.25 13.594 16.25 12.0752ZM9.83032 17.9448C9.53742 17.6519 9.06255 17.6519 8.76966 17.9448C8.47676 18.2377 8.47676 18.7125 8.76966 19.0054L11.0696 21.3054C11.5625 21.7983 12.3374 21.7983 12.8303 21.3054L15.1303 19.0054C15.4232 18.7125 15.4232 18.2377 15.1303 17.9448C14.8374 17.6519 14.3625 17.6519 14.0696 17.9448L11.95 20.0644L9.83032 17.9448Z" fill="black"/>
</svg>
